icons/1_Primary/postale.io.svg

<svg xmlns="http://www.w3.org/2000/svg" viewBox="0 0 1024 1024">
   <circle cx="512" cy="512" r="512" style="fill:#b3b2a4"/>
   <path d="M282 296.5c-31.692 0-57.5 26.69-57.5 57.5v287c0 31.768 25.719 57.8 57.5 57.8h460c31.781 0 57.5-26.032 57.5-57.8V354c0-30.982-25.561-57.5-57.5-57.5zm-48 29.3c1.599 1.97 3.512 3.853 5.6 5.9l221.7 165.9c28.13 27.183 73.27 27.181 101.4 0l221.7-165.9c2.087-2.047 4-3.93 5.6-5.9l1 2.1-6.802 8.4-190.9 161.2 191.1 161.4c2.604 2.903 4.698 5.648 6.6 8.4l-1.2 2.2c-1.693-2.081-3.491-4.113-5.4-6l-205.5-153.7-16.2 13.9c-26.943 30.635-74.457 30.635-101.4 0l-16.2-13.9-205.5 153.7c-1.908 1.887-3.706 3.919-5.4 6l-1.2-2.2c1.903-2.752 3.997-5.497 6.6-8.4l191.1-161.4-190.9-161.2-6.8-8.4zm-9.5 320.7V670c0 31.748 25.738 57.5 57.5 57.5h460c31.762 0 57.5-25.752 57.5-57.5v-23.5c0 31.573-25.913 57.25-57.5 57.25H282c-31.587 0-57.501-25.677-57.5-57.25z" style="fill:#fff"/>
</svg>

<svg width="1024" height="1024" viewBox="0 0 1024 1024" fill="none" xmlns="http://www.w3.org/2000/svg">
<g clip-path="url(#clip0_2_3183)">
<path d="M512 1024C794.77 1024 1024 794.77 1024 512C1024 229.23 794.77 0 512 0C229.23 0 0 229.23 0 512C0 794.77 229.23 1024 512 1024Z" fill="#A0A5AF"/>
<path d="M282 296.5C250.308 296.5 224.5 323.19 224.5 354V641C224.5 672.768 250.219 698.8 282 698.8H742C773.781 698.8 799.5 672.768 799.5 641V354C799.5 323.018 773.939 296.5 742 296.5H282ZM234 325.8C235.599 327.77 237.512 329.653 239.6 331.7L461.3 497.6C489.43 524.783 534.57 524.781 562.7 497.6L784.4 331.7C786.487 329.653 788.4 327.77 790 325.8L791 327.9L784.198 336.3L593.298 497.5L784.398 658.9C787.002 661.803 789.096 664.548 790.998 667.3L789.798 669.5C788.105 667.419 786.307 665.387 784.398 663.5L578.898 509.8L562.698 523.7C535.755 554.335 488.241 554.335 461.298 523.7L445.098 509.8L239.598 663.5C237.69 665.387 235.892 667.419 234.198 669.5L232.998 667.3C234.901 664.548 236.995 661.803 239.598 658.9L430.698 497.5L239.798 336.3L232.998 327.9L234 325.8ZM224.5 646.5V670C224.5 701.748 250.238 727.5 282 727.5H742C773.762 727.5 799.5 701.748 799.5 670V646.5C799.5 678.073 773.587 703.75 742 703.75H282C250.413 703.75 224.499 678.073 224.5 646.5Z" fill="white"/>
</g>
<defs>
<clipPath id="clip0_2_3183">
<rect width="1024" height="1024" fill="white"/>
</clipPath>
</defs>
</svg>
